source/img/header-logo-icon.svg

<svg width="81" height="27" viewBox="0 0 81 27" fill="none" xmlns="http://www.w3.org/2000/svg">
<g filter="url(#filter0_d)">
<path d="M19.392 18H14.016L9.696 10.152L8.688 7.992H8.64L8.736 11.136V18H4.464V2.16H9.816L14.136 10.008L15.168 12.168H15.192L15.096 9.024V2.16H19.392V18ZM26.8834 18H22.0354V6H26.8834V18ZM25.9474 4.752L24.4594 2.856L22.9714 4.752H19.5874L22.1554 0.527999H26.7634L29.3314 4.752H25.9474ZM45.4787 5.76C46.6787 5.76 47.6307 6.12 48.3347 6.84C49.0387 7.56 49.3907 8.576 49.3907 9.888V18H44.5427V11.088C44.5427 10.48 44.4387 10.048 44.2307 9.792C44.0387 9.52 43.7427 9.384 43.3427 9.384C42.8307 9.384 42.4307 9.576 42.1427 9.96C41.8707 10.344 41.7347 10.912 41.7347 11.664V18H36.8867V11.088C36.8867 10.48 36.7827 10.048 36.5747 9.792C36.3827 9.52 36.0867 9.384 35.6867 9.384C35.1907 9.384 34.7987 9.576 34.5107 9.96C34.2227 10.344 34.0787 10.92 34.0787 11.688V18H29.2307V6H33.5987L33.7187 8.472C34.0867 7.592 34.6147 6.92 35.3027 6.456C36.0067 5.992 36.8467 5.76 37.8227 5.76C38.7347 5.76 39.5027 5.968 40.1267 6.384C40.7667 6.8 41.2227 7.4 41.4947 8.184C41.8627 7.4 42.3907 6.8 43.0787 6.384C43.7667 5.968 44.5667 5.76 45.4787 5.76ZM63.8753 11.712C63.8753 12.288 63.8353 12.752 63.7552 13.104H55.8593C55.9553 13.776 56.1713 14.248 56.5073 14.52C56.8433 14.792 57.3153 14.928 57.9233 14.928C58.8993 14.928 59.4993 14.544 59.7233 13.776L63.6353 14.904C63.3313 15.992 62.6673 16.824 61.6433 17.4C60.6353 17.96 59.3953 18.24 57.9233 18.24C55.7473 18.24 54.0833 17.704 52.9313 16.632C51.7793 15.544 51.2033 14 51.2033 12C51.2033 10.016 51.7633 8.48 52.8833 7.392C54.0193 6.304 55.6113 5.76 57.6593 5.76C59.6593 5.76 61.1953 6.296 62.2673 7.368C63.3393 8.424 63.8753 9.872 63.8753 11.712ZM57.6833 9.048C57.1553 9.048 56.7393 9.2 56.4353 9.504C56.1473 9.808 55.9553 10.304 55.8593 10.992H59.3393C59.2593 10.336 59.0833 9.848 58.8113 9.528C58.5553 9.208 58.1793 9.048 57.6833 9.048ZM70.9794 18.24C69.5554 18.24 68.3394 18.088 67.3314 17.784C66.3394 17.48 65.5154 16.984 64.8594 16.296L67.1394 13.656C67.5554 14.152 68.0674 14.536 68.6754 14.808C69.2834 15.064 69.9554 15.192 70.6914 15.192C71.1074 15.192 71.4434 15.144 71.6994 15.048C71.9554 14.952 72.0834 14.808 72.0834 14.616C72.0834 14.44 71.9394 14.288 71.6514 14.16C71.3634 14.016 70.8514 13.864 70.1154 13.704C68.3554 13.368 67.0834 12.888 66.2994 12.264C65.5314 11.64 65.1474 10.832 65.1474 9.84C65.1474 9.152 65.3714 8.496 65.8194 7.872C66.2834 7.248 66.9714 6.744 67.8834 6.36C68.8114 5.96 69.9554 5.76 71.3154 5.76C73.9234 5.76 75.8034 6.424 76.9554 7.752L74.7714 10.128C74.0194 9.248 72.9314 8.808 71.5074 8.808C71.0114 8.808 70.6354 8.872 70.3794 9C70.1234 9.112 69.9954 9.264 69.9954 9.456C69.9954 9.616 70.1314 9.76 70.4034 9.888C70.6914 10 71.1634 10.112 71.8194 10.224C73.6274 10.496 74.9314 10.944 75.7314 11.568C76.5474 12.176 76.9554 13.024 76.9554 14.112C76.9554 15.312 76.4514 16.304 75.4434 17.088C74.4354 17.856 72.9474 18.24 70.9794 18.24Z" fill="#151C22"/>
</g>
<defs>
<filter id="filter0_d" x="0.464844" y="0.527985" width="80.4914" height="25.712" filterUnits="userSpaceOnUse" color-interpolation-filters="sRGB">
<feFlood flood-opacity="0" result="BackgroundImageFix"/>
<feColorMatrix in="SourceAlpha" type="matrix" values="0 0 0 0 0 0 0 0 0 0 0 0 0 0 0 0 0 0 127 0"/>
<feOffset dy="4"/>
<feGaussianBlur stdDeviation="2"/>
<feColorMatrix type="matrix" values="0 0 0 0 0 0 0 0 0 0 0 0 0 0 0 0 0 0 0.25 0"/>
<feBlend mode="normal" in2="BackgroundImageFix" result="effect1_dropShadow"/>
<feBlend mode="normal" in="SourceGraphic" in2="effect1_dropShadow" result="shape"/>
</filter>
</defs>
</svg>

<svg width="81" height="27" fill="none" xmlns="http://www.w3.org/2000/svg"><g filter="url(#filter0_d)"><path d="M19.392 18h-5.376l-4.32-7.848-1.008-2.16H8.64l.096 3.144V18H4.464V2.16h5.352l4.32 7.848 1.032 2.16h.024l-.096-3.144V2.16h4.296V18zm7.491 0h-4.848V6h4.848v12zm-.936-13.248L24.46 2.856l-1.488 1.896h-3.384L22.155.528h4.608l2.568 4.224h-3.384zM45.48 5.76c1.2 0 2.152.36 2.856 1.08.704.72 1.056 1.736 1.056 3.048V18h-4.848v-6.912c0-.608-.104-1.04-.312-1.296-.192-.272-.488-.408-.888-.408-.512 0-.912.192-1.2.576-.272.384-.408.952-.408 1.704V18h-4.848v-6.912c0-.608-.104-1.04-.312-1.296-.192-.272-.488-.408-.888-.408-.496 0-.888.192-1.176.576-.288.384-.432.96-.432 1.728V18h-4.85V6h4.368l.12 2.472c.368-.88.896-1.552 1.584-2.016.704-.464 1.544-.696 2.52-.696.912 0 1.68.208 2.304.624.64.416 1.096 1.016 1.368 1.8.368-.784.896-1.384 1.584-1.8.688-.416 1.488-.624 2.4-.624zm18.396 5.952c0 .576-.04 1.04-.12 1.392H55.86c.096.672.312 1.144.648 1.416s.808.408 1.416.408c.976 0 1.576-.384 1.8-1.152l3.912 1.128c-.304 1.088-.968 1.92-1.992 2.496-1.008.56-2.248.84-3.72.84-2.176 0-3.84-.536-4.992-1.608C51.78 15.544 51.203 14 51.203 12c0-1.984.56-3.52 1.68-4.608C54.02 6.304 55.611 5.76 57.66 5.76c2 0 3.536.536 4.608 1.608 1.072 1.056 1.608 2.504 1.608 4.344zm-6.192-2.664c-.528 0-.944.152-1.248.456-.288.304-.48.8-.576 1.488h3.48c-.08-.656-.256-1.144-.528-1.464-.256-.32-.632-.48-1.128-.48zM70.98 18.24c-1.424 0-2.64-.152-3.648-.456-.992-.304-1.816-.8-2.472-1.488l2.28-2.64c.416.496.928.88 1.536 1.152.608.256 1.28.384 2.016.384.416 0 .752-.048 1.008-.144.256-.096.384-.24.384-.432 0-.176-.144-.328-.432-.456-.288-.144-.8-.296-1.536-.456-1.76-.336-3.032-.816-3.816-1.44-.768-.624-1.152-1.432-1.152-2.424 0-.688.224-1.344.672-1.968.464-.624 1.152-1.128 2.064-1.512.928-.4 2.072-.6 3.432-.6 2.608 0 4.488.664 5.64 1.992l-2.184 2.376c-.752-.88-1.84-1.32-3.264-1.32-.496 0-.872.064-1.128.192-.256.112-.384.264-.384.456 0 .16.136.304.408.432.288.112.76.224 1.416.336 1.808.272 3.112.72 3.912 1.344.816.608 1.224 1.456 1.224 2.544 0 1.2-.504 2.192-1.512 2.976-1.008.768-2.496 1.152-4.464 1.152z" fill="#151C22"/></g><defs><filter id="filter0_d" x=".465" y=".528" width="80.491" height="25.712" filterUnits="userSpaceOnUse" color-interpolation-filters="sRGB"><feFlood flood-opacity="0" result="BackgroundImageFix"/><feColorMatrix in="SourceAlpha" values="0 0 0 0 0 0 0 0 0 0 0 0 0 0 0 0 0 0 127 0"/><feOffset dy="4"/><feGaussianBlur stdDeviation="2"/><feColorMatrix values="0 0 0 0 0 0 0 0 0 0 0 0 0 0 0 0 0 0 0.25 0"/><feBlend in2="BackgroundImageFix" result="effect1_dropShadow"/><feBlend in="SourceGraphic" in2="effect1_dropShadow" result="shape"/></filter></defs></svg>
